X:1
T:The Legacy
T:Larry Redican's
N:Larry Redican
Z:2004 John Chambers <jc:trillian.mit.edu>
R:jig
M:6/8
L:1/8
K:ADor
|:"Am"EAA    EAc |  "G"B2B     GBd | "Em"edB     edB | "Am"cdc "G"BAG \
| "Am"E3     ABc |  "G"B2B     GBd | "Em"edB     edB |  "G"BAG "Am"A3 :|
|:"D"def "Em"g2g | "Am"age "Em"edB |  "D"def "Em"g2g | "Am"age    age \
| "D"def "Em"gab | "Am"age "Em"edB | "Em"eBB     edB |  "G"BAG "Am"A3 :|
